packages/components/Atoms/Icon/assets/img/rpl_icon_enlarge_screen.svg

<svg width="30" height="30" viewBox="0 0 30 30" overflow="visible" xmlns="http://www.w3.org/2000/svg">
  <path
    d="M29 4V26C29 27.6569 27.6569 29 26 29H4C2.34312 29 1 27.6569 1 26V4C1 2.34312 2.34312 1 4 1H26C27.6569 1 29 2.34312 29 4Z"
    fill="white" />
  <path
    d="M6.33514 15.0107L7.23779 15.0222C7.62407 15.0272 7.93921 15.3504 7.93603 15.7365L7.88152 20.5187L11.9995 16.4007C12.2664 16.1338 12.7015 16.1394 12.9754 16.4132L13.6343 17.0721C13.9081 17.346 13.9137 17.7811 13.6468 18.048L9.52879 22.166L14.311 22.1115C14.6991 22.1063 15.0223 22.4214 15.0253 22.8097L15.0368 23.7124C15.0418 24.0946 14.7367 24.3996 14.3565 24.3927L6.45422 24.2934C6.07202 24.2885 5.75903 23.9755 5.75619 23.5953L5.65479 15.691C5.64989 15.3088 5.95494 15.0037 6.33514 15.0107ZM15.691 5.67812L23.5933 5.77747C23.9755 5.78237 24.2885 6.09535 24.2913 6.4755L24.3927 14.3798C24.3976 14.762 24.0926 15.0671 23.7124 15.0602L22.8097 15.0486C22.4234 15.0436 22.1083 14.7205 22.1115 14.3343L22.166 9.55212L18.048 13.6701C17.7811 13.937 17.346 13.9315 17.0721 13.6576L16.4132 12.9987C16.1394 12.7248 16.1338 12.2898 16.4007 12.0228L20.5187 7.90485L15.7365 7.95937C15.3484 7.96455 15.0252 7.64941 15.0222 7.26113L15.0107 6.35847C15.0057 5.97627 15.3108 5.67121 15.691 5.67812Z"
    fill="inherit" />
</svg>

<svg width="30" height="30" overflow="visible" xmlns="http://www.w3.org/2000/svg"><path d="M29 4v22a3 3 0 01-3 3H4a3 3 0 01-3-3V4a3 3 0 013-3h22a3 3 0 013 3z" fill="#fff"/><path d="M6.335 15.01l.903.012a.713.713 0 01.698.714l-.054 4.783 4.117-4.118a.689.689 0 01.976.012l.66.66c.273.273.279.708.012.975l-4.118 4.118 4.782-.055a.707.707 0 01.714.699l.012.902a.666.666 0 01-.68.68l-7.903-.099a.709.709 0 01-.698-.698l-.101-7.904a.666.666 0 01.68-.68zm9.356-9.332l7.902.1a.709.709 0 01.698.698l.102 7.904a.666.666 0 01-.68.68l-.903-.011a.712.712 0 01-.698-.715l.054-4.782-4.118 4.118a.689.689 0 01-.976-.012l-.659-.66a.689.689 0 01-.012-.975l4.118-4.118-4.782.054a.707.707 0 01-.715-.698l-.011-.903a.666.666 0 01.68-.68z" fill="inherit"/></svg>
